X: 6916
T: Cheery Groove
R: slip jig
M: 9/8
K: Gmajor
D2 G GAF ~G2 A|~B2 d deB d2 B|ABd edB A2 B|ABB dBD ~E3|
~D2 G GAF ~G2 A|~B2 d deB ~d3|B2 d edB A2 B|1 AGE ~G3 GFE:|2 AGE ~G3 GBd||
e2 g gfd ~e2 d|B2 d deB ~d3|B2 d edB A2 B|ABB dBD ~E2 d|
e2 g gfd ~e2 d|B2 d deB ~d3|B2 d edB A2 B|AGE ~G3 GBd|
e2 g gfd ~e2 d|B2 d deB ~d3|B2 d edB A2 B|ABB dBD ~E3|
D2 G GAF ~G2 A|B2 d deB ~d3|B2 d edB A2 B|AGE ~G3 GFE||

